Suru++-Ubuntu/actions/16/image-invert.svg

<svg xmlns="http://www.w3.org/2000/svg" width="16" height="16" version="1.1">
 <g transform="translate(-31.97559,-220.36218)">
  <path d="m11.5625 4.46875-7.0625 7.0625c0.904822 0.904822 2.1505382 1.46875 3.53125 1.46875 2.761424 0 5-2.238576 5-5 0-1.3807118-0.563928-2.626428-1.46875-3.53125z" transform="translate(31.97559,220.36218)" style="fill:#808080"/>
  <path d="m1.03125 1v14l3.46875-3.46875c-0.904822-0.904822-1.46875-2.150538-1.46875-3.53125 0-2.7614237 2.2385763-5 5-5 1.3807119 0 2.626428 0.563928 3.53125 1.46875l3.46875-3.46875h-14z" transform="translate(31.97559,220.36218)" style="fill:#808080"/>
 </g>
</svg>

<svg xmlns="http://www.w3.org/2000/svg" width="16" height="16" version="1.1">
 <g transform="translate(-31.97559,-220.36218)">
  <path style="fill:#4d4d4d" d="M 11.5625 4.46875 L 4.5 11.53125 C 5.404822 12.436072 6.6505382 13 8.03125 13 C 10.792674 13 13.03125 10.761424 13.03125 8 C 13.03125 6.6192882 12.467322 5.373572 11.5625 4.46875 z" transform="translate(31.97559,220.36218)"/>
  <path style="fill:#4d4d4d" d="M 1.03125 1 L 1.03125 15 L 4.5 11.53125 C 3.595178 10.626428 3.03125 9.380712 3.03125 8 C 3.03125 5.2385763 5.2698263 3 8.03125 3 C 9.4119619 3 10.657678 3.563928 11.5625 4.46875 L 15.03125 1 L 1.03125 1 z" transform="translate(31.97559,220.36218)"/>
 </g>
</svg>
